X: 6
T: Market Town, The
Z: Ian Varley
S: https://thesession.org/tunes/3772#setting29396
R: jig
M: 6/8
L: 1/8
K: Amaj
E3 ECE|EFA A2 f|edc Bcd|cBA F3|
E3 ECE|EFA A2f|edc BAB|1 cAA A2 F:|2 cAA Acd||
|:e2 e ece|f2 g a2 f|edc Bcd|cBA F3|
|1 e2 e ece|f2 ga2 f|edc BAB|1 cAA Acd:|
|2 Ace def|cde fga|edc BAB|cAA AGF||
